X: 40912
T: Trip Note
R: jig
M: 6/8
K: Gmajor
|:B2c BAG|A2B AGF|~G3 AGF|G2B d2c|
B2c BAG|A2B AGF|~G3 AGF|1 ~G3 G2A:|2 ~G3 GB/c/d||
~e3 g2e|d2c B2c|d2c B2A|~G3 GB/c/d|
~e3 g2e|d2c B2G|~A3 ~B3|d3 GB/c/d|
~e3 g2e|d2c B2c|d2c B2A|~G3 GAB|
G3 GAB|G3 GAB|c2B A2G|d3 d2c||

